Sources/FrostedUI/Resources/Icons.xcassets/thumbDown24.imageset/thumb-down-24.svg

<svg width="24" height="24" viewBox="0 0 24 24" fill="none" xmlns="http://www.w3.org/2000/svg" data-fui-icon="true">
  <path
    d="M11.6113 22C13.2964 21.9998 14.5934 20.496 14.333 18.8262L13.8916 16H18.2588C20.5547 16 22.3112 13.9552 21.9658 11.6855L21.1289 6.18555C20.85 4.35362 19.275 3 17.4219 3H3.75C2.78352 3 2 3.78348 2 4.75V12.25C2 13.2165 2.78352 14 3.75 14H6.4209L10.0537 21.0518C10.3543 21.6352 10.9572 22 11.6113 22ZM3.75 12.5C3.61192 12.5 3.5 12.3881 3.5 12.25V4.75C3.5 4.61192 3.61192 4.5 3.75 4.5H6V12.5H3.75ZM11.6113 20.5C11.5166 20.5 11.43 20.4464 11.3877 20.3643L7.5 12.8184V4.5H17.4219C18.5337 4.5 19.4791 5.31204 19.6465 6.41113L20.4834 11.9111C20.6906 13.2729 19.6363 14.5 18.2588 14.5H13.0156C12.7967 14.5001 12.5887 14.5964 12.4463 14.7627C12.304 14.929 12.2417 15.149 12.2754 15.3652L13.0156 15.25V15.251L12.2754 15.3652L12.8506 19.0576C12.9683 19.813 12.3806 20.4998 11.6113 20.5Z"
    fill="currentColor"
  />
</svg>

<svg xmlns="http://www.w3.org/2000/svg" width="24" height="24" fill="none" data-fui-icon="true" viewBox="0 0 24 24"><path fill="currentColor" d="M11.611 22a2.754 2.754 0 0 0 2.722-3.174L13.892 16h4.367a3.75 3.75 0 0 0 3.707-4.315l-.837-5.5A3.75 3.75 0 0 0 17.422 3H3.75A1.75 1.75 0 0 0 2 4.75v7.5c0 .966.784 1.75 1.75 1.75h2.67l3.634 7.052c.3.583.903.948 1.557.948M3.75 12.5a.25.25 0 0 1-.25-.25v-7.5a.25.25 0 0 1 .25-.25H6v8zm7.861 8a.25.25 0 0 1-.223-.136L7.5 12.818V4.5h9.922a2.25 2.25 0 0 1 2.224 1.911l.837 5.5A2.25 2.25 0 0 1 18.26 14.5h-5.243a.75.75 0 0 0-.74.865l.74-.115v.001l-.74.114.575 3.693a1.253 1.253 0 0 1-1.24 1.442"/></svg>
